X: 4908
T: Branlee D'Ecosse
R: barndance
M: 4/4
K: Gminor
|:GABG ABc2|cBAG Bcd2|dfed cBAG|
GABG A/G/A/B/c z|cBAG Bcd2|cBAG AFG2:|
|:d2 d=e fgfe|d2 {e}d2 cBAG|d2 cB A>B/A/ G z|
d2 d=e fgfe|d2 {e}d2 cBAG|AFG z:|

